X:1
T:McCabe, LM
T:Ephraim Soliday Widdemer
T:McCabe, LM
T:Public Domain
C:Ephraim Soliday Widdemer
Z:Public Domain
%%score ( 1 2 ) ( 3 4 )
L:1/8
M:3/4
K:F
V:1 treble 
V:2 treble 
V:3 bass 
V:4 bass 
V:1
 (FG) | [FA]4 (BA) | (A2 G2) [CF]2 | [DG]4 (FE) | [CF]4 (AB) | [Fc]4 (cA) | [Fd]4 (BG) | %7
 [Fc]4 (cA) | [EG]4 (FG) | [FA]4 (BA) | (A2 G2) [CF]2 | [DG]4 (FE) | F2 G2 [FA]2 | [FB]4 [Fd]2 | %14
 [Fc]4 (FG) | [FA]4 (AG) | F4 |] %17
V:2
 F2 | x4 F2 | C4 x2 | x4 C2 | x4 F2 | x4 F2 | x4 F2 | x4 F2 | x4 F2 | x4 F2 | C4 x2 | x4 C2 | %12
 C4 x2 | x6 | x4 F2 | x4 E2 | F4 |] %17
V:3
 (A,B,) | [F,C]4 (DC) | (C2 B,2) [F,A,]2 | [B,,B,]4 (A,G,) | [F,A,]4 (F,G,) | A,4 (G,F,) | %6
 A,4 (G,F,) | A,4 (G,F,) | C,4 (A,B,) | [F,C]4 (DC) | (C2 B,2) [F,A,]2 | [B,,B,]4 (A,G,) | %12
 A,2 B,2 [F,C]2 | [B,D]4 B,2 | [A,C]4 [B,D]2 | C4 [B,,B,]2 | [F,A,]4 |] %17
V:4
 F,2 | x4 F,2 | F,4 x2 | x4 C,2 | x6 | A,4 x2 | A,4 x2 | A,4 x2 | C,4 F,2 | x4 F,2 | F,4 x2 | %11
 x4 C,2 | F,4 x2 | x4 B,2 | x6 | C4 x2 | x4 |] %17

